RestoDelMundo/Paises Bajos/Otras Categorias/Hsv Hoek.svg

<svg xmlns="http://www.w3.org/2000/svg" viewBox="0 0 612 792"><path fill="#3155a6" d="M113.396 415.26v116.332h-66.6v-67.224H23.17v158.076h23.626V555.22h66.6v67.224h23.626V425.293ZM260.714 477.823l-37.03-15.727c-3.511-1.489-7.209-2.179-10.939-2.179-18.631.001-37.995 17.206-37.995 37.653v87.145c0 20.854 14.764 37.728 33.01 37.728h42.947c17.754 0 35.73-16.874 35.73-37.728v-66.574c-.001-24.179-12.729-34.798-25.723-40.318m6.955 104.682c0 10.211-13.056 21.172-20.691 21.172H215.94c-7.721 0-22.424-11.375-22.424-21.652v-75.551c0-9.993 6.899-23.2 20.919-23.2 1.941 0 4.563.712 5.651 1.174l33.291 14.139c8.579 3.643 14.291 8.957 14.291 23.046zM431.492 534.582v-22.15H324.404v110.012h107.088v-22.151h-83.463v-24.138h46.703v-22.15h-46.703v-19.423ZM585.727 466.294h-26.015l-64.916 92.569V451.926l-23.625-17.637v188.155h23.625V595.96l27.217-38.812 37.699 65.296h26.015l-49.446-85.641ZM140.631 172.758h-23.626v48.819H51.127v-48.819H27.501v132.091h2.508l21.118-8.968v-50.678h65.878v46.95l23.626 10.033ZM204.54 211.47c0-11.203 12.087-20.268 27.024-20.268 29.874 0 54.048 26.059 54.048 26.059l-1.448-25.094s-23.526-19.409-52.6-19.409c-26.674 0-48.257 17.531-48.257 39.195 0 45.362 96.032 49.222 96.032 95.066 0 11.736-10.576 21.233-23.646 21.233-42.144 0-76.247-38.605-76.247-38.605v29.023l67.519 28.673c16.678 7.083 53.125-3.648 53.125-40.324-.001-52.6-95.55-69.972-95.55-95.549M348.579 353.479l129.054-180.721h-27.557L364.032 293.25l-19.255-120.492H319.7Z"/><path fill="#3155a6" d="m88.454 299.912-65.285 34.275v102.152h72.904v-53.985l72.276 30.693-2.013-8.927a50 50 0 0 1-1.237-11.027c0-17.975 9.475-33.699 23.715-42.522l7.696-4.771-8.333-3.539zM433.052 281.733l-2.829 3.59-94.304 119.681-73.914-31.388 1.917 8.852a50.2 50.2 0 0 1 1.142 10.624c0 18.116-9.628 33.96-24.057 42.739l-7.816 4.753 125.503 53.301 87.666-111.251 99.198 74.05 43.61-58.424z"/><path fill="#fff" d="m186.343 346.581-97.675-41.479-60.804 31.921v94.625h63.519v-56.232l.158-.085 70.218 29.821a55 55 0 0 1-1.351-12.061c0-19.651 10.371-36.873 25.935-46.51M433.91 288.227l-96.525 122.5-68.878-29.251a54.8 54.8 0 0 1 1.249 11.616c0 19.81-10.537 37.16-26.311 46.751l113.787 48.324 88.274-112.025 99.104 73.977 37.995-50.902z"/><path fill="#3155a6" d="M170.659 391.107c0-24.733 20.05-44.783 44.784-44.783s44.783 20.05 44.786 44.783c-.003 24.733-20.053 44.783-44.786 44.786-24.735-.002-44.784-20.052-44.784-44.786"/><path fill="#fff" d="m180.261 399.716-.003-.006a85 85 0 0 1-.418-3.701 108 108 0 0 1-.469-9.414c.109-.249.276-.617.519-1.1 1.288-2.685 4.637-7.726 8.975-8.826l9.524 5.47.216 18.663-6.771 8.166a20.1 20.1 0 0 1-8.804-5.488 19.7 19.7 0 0 1-2.256-2.896 14 14 0 0 1-.513-.868M236.715 360.86c2.578 1.327 5.29 4.266 7.229 6.952a49 49 0 0 1 2.415 3.65c.264.439.461.785.604 1.042-.066 4.376-.925 7.666-1.764 9.852a18.4 18.4 0 0 1-1.148 2.453l-11.412.801-10.076-14.149 1.764-9.785c1.651-.4 4.837-1.016 8.715-1.013a34 34 0 0 1 3.673.197M218.339 370.471l-17.679 7.978-9.225-5.299c.177-3.484 1.073-6.675 1.986-9.056a32 32 0 0 1 1.39-3.133c.078-.151.144-.275.208-.393.181-.143.445-.345.802-.605 2.19-1.601 7.453-4.877 13.247-5.542 2.921.015 5.876 1.619 8.083 3.375a25 25 0 0 1 2.651 2.434c.122.129.221.239.318.346zM206.797 350.398c-6.788 1.301-12.12 4.99-14.072 6.475l-1.046-.157a41.7 41.7 0 0 1 15.118-6.526zM221.247 407.326l-19.603-3.406-6.673 8.047c1.514 6.003 4.206 9.564 4.855 10.342.179.116.467.299.902.553.755.44 1.861 1.031 3.225 1.623 2.735 1.189 6.499 2.35 10.543 2.35 1.724.024 3.725-1.078 5.52-2.77 1.787-1.66 3.297-3.768 4.183-5.161.184-.289.33-.529.458-.743zM199.096 426.912c2.593 1.45 7.542 3.753 13.568 4.181l.307 1.762a41.7 41.7 0 0 1-15.164-3.838zM243.592 413.498a42 42 0 0 1-2.23 2.444c-.223.226-.395.394-.538.53-.923.238-3.23.734-6.284.734-1.742 0-3.731-.181-5.842-.633l-3.455-10.979 7.727-15.664 11.404-.801c1.176 1.549 3.938 6.275 4.037 16.796-1.218 2.867-3.144 5.591-4.819 7.573M252.019 370.853l-1.361-.583c-1.216-2.165-5.155-8.905-10.721-12.52l.133-.42a42.04 42.04 0 0 1 11.949 13.523M173.781 387.482l1.27.347c.08 4.81.48 8.886.741 11.092l-1.344.484a42 42 0 0 1-.839-8.298c.002-1.222.068-2.429.172-3.625M244.696 420.966l-.4-1.835c1.732-1.723 5.512-5.807 7.859-10.943l1.664-.473a42 42 0 0 1-9.123 13.251"/><path fill="#3155a6" d="M520.967 324.097h69.349v-37.776H470.361ZM509.949 172.758l-26.977 37.774h107.344v-37.774ZM442.424 267.313h147.892v-37.774H469.401Z"/><path fill="#fff" d="M585.625 319.405v-28.391H484.491l38.036 28.391ZM585.625 205.841V177.45h-73.259l-20.274 28.391ZM585.625 262.623v-28.391H471.817l-20.273 28.391Z"/></svg>

<svg enable-background="new 0 0 612 792" viewBox="0 0 612 792" xmlns="http://www.w3.org/2000/svg"><path d="M 113.396 415.26 L 113.396 531.592 L 46.796 531.592 L 46.796 464.368 L 23.17 464.368 L 23.17 622.444 L 46.796 622.444 L 46.796 555.22 L 113.396 555.22 L 113.396 622.444 L 137.022 622.444 L 137.022 425.293 Z" fill="#3155a6"/><path d="M 260.714 477.823 l -37.03 -15.727 c -3.511 -1.489 -7.209 -2.179 -10.939 -2.179 c -18.631 .001 -37.995 17.206 -37.995 37.653 v 87.145 c 0 20.854 14.764 37.728 33.01 37.728 h 42.947 c 17.754 0 35.73 -16.874 35.73 -37.728 v -66.574 C 286.436 493.962 273.708 483.343 260.714 477.823 z M 267.669 582.505 c 0 10.211 -13.056 21.172 -20.691 21.172 H 215.94 c -7.721 0 -22.424 -11.375 -22.424 -21.652 v -75.551 c 0 -9.993 6.899 -23.2 20.919 -23.2 c 1.941 0 4.563 .712 5.651 1.174 l 33.291 14.139 c 8.579 3.643 14.291 8.957 14.291 23.046 V 582.505 z" fill="#3155a6"/><path d="M 431.492 534.582 L 431.492 512.432 L 324.404 512.432 L 324.404 622.444 L 431.492 622.444 L 431.492 600.293 L 348.029 600.293 L 348.029 576.155 L 394.732 576.155 L 394.732 554.005 L 348.029 554.005 L 348.029 534.582 Z" fill="#3155a6"/><path d="M 585.727 466.294 L 559.712 466.294 L 494.796 558.863 L 494.796 451.926 L 471.171 434.289 L 471.171 622.444 L 494.796 622.444 L 494.796 595.96 L 522.013 557.148 L 559.712 622.444 L 585.727 622.444 L 536.281 536.803 Z" fill="#3155a6"/><path d="M 140.631 172.758 L 117.005 172.758 L 117.005 221.577 L 51.127 221.577 L 51.127 172.758 L 27.501 172.758 L 27.501 304.849 L 30.009 304.849 L 51.127 295.881 L 51.127 245.203 L 117.005 245.203 L 117.005 292.153 L 140.631 302.186 Z" fill="#3155a6"/><path d="M 204.54 211.47 c 0 -11.203 12.087 -20.268 27.024 -20.268 c 29.874 0 54.048 26.059 54.048 26.059 l -1.448 -25.094 c 0 0 -23.526 -19.409 -52.6 -19.409 c -26.674 0 -48.257 17.531 -48.257 39.195 c 0 45.362 96.032 49.222 96.032 95.066 c 0 11.736 -10.576 21.233 -23.646 21.233 c -42.144 0 -76.247 -38.605 -76.247 -38.605 v 29.023 l 67.519 28.673 c 16.678 7.083 53.125 -3.648 53.125 -40.324 C 300.089 254.419 204.54 237.047 204.54 211.47 z" fill="#3155a6"/><path d="M 348.579 353.479 L 477.633 172.758 L 450.076 172.758 L 364.032 293.25 L 344.777 172.758 L 319.7 172.758 Z" fill="#3155a6"/><path d="M 88.454 299.912 l -65.285 34.275 v 102.152 h 72.904 v -53.985 l 72.276 30.693 l -2.013 -8.927 c -.803 -3.56 -1.237 -7.242 -1.237 -11.027 c 0 -17.975 9.475 -33.699 23.715 -42.522 l 7.696 -4.771 l -8.333 -3.539 L 88.454 299.912 z" fill="#3155a6"/><path d="M 433.052 281.733 l -2.829 3.59 l -94.304 119.681 l -73.914 -31.388 l 1.917 8.852 c .742 3.432 1.142 6.98 1.142 10.624 c 0 18.116 -9.628 33.96 -24.057 42.739 l -7.816 4.753 l 125.503 53.301 l 87.666 -111.251 l 99.198 74.05 l 43.61 -58.424 L 433.052 281.733 z" fill="#3155a6"/><path d="M 186.343 346.581 l -97.675 -41.479 l -60.804 31.921 v 94.625 h 63.519 v -56.232 l .158 -.085 l 70.218 29.821 c -.874 -3.883 -1.351 -7.915 -1.351 -12.061 C 160.408 373.44 170.779 356.218 186.343 346.581 z" fill="#fff"/><path d="M 433.91 288.227 l -96.525 122.5 l -68.878 -29.251 c .811 3.745 1.249 7.629 1.249 11.616 c 0 19.81 -10.537 37.16 -26.311 46.751 l 113.787 48.324 l 88.274 -112.025 l 99.104 73.977 l 37.995 -50.902 L 433.91 288.227 z" fill="#fff"/><path d="M 170.659 391.107 c 0 -24.733 20.05 -44.783 44.784 -44.783 l 0 0 c 24.733 0 44.783 20.05 44.786 44.783 l 0 0 c -.003 24.733 -20.053 44.783 -44.786 44.786 l 0 0 C 190.708 435.891 170.659 415.841 170.659 391.107 L 170.659 391.107 z" fill="#3155a6"/><path d="M 180.261 399.716 c -.001 -.003 -.001 -.003 -.003 -.006 c -.079 -.572 -.247 -1.863 -.418 -3.701 c -.228 -2.421 -.452 -5.747 -.469 -9.414 c .109 -.249 .276 -.617 .519 -1.1 c 1.288 -2.685 4.637 -7.726 8.975 -8.826 l 9.524 5.47 l .216 18.663 l -6.771 8.166 c -4.057 -1.247 -6.909 -3.469 -8.804 -5.488 c -1.039 -1.11 -1.784 -2.148 -2.256 -2.896 C 180.537 400.212 180.367 399.912 180.261 399.716 z" fill="#fff"/><path d="M 236.715 360.86 c 2.578 1.327 5.29 4.266 7.229 6.952 c 1.015 1.39 1.843 2.697 2.415 3.65 c .264 .439 .461 .785 .604 1.042 c -.066 4.376 -.925 7.666 -1.764 9.852 c -.424 1.096 -.84 1.912 -1.148 2.453 l -11.412 .801 l -10.076 -14.149 l 1.764 -9.785 c 1.651 -.4 4.837 -1.016 8.715 -1.013 C 234.21 360.66 235.446 360.726 236.715 360.86 z" fill="#fff"/><path d="M 218.339 370.471 l -17.679 7.978 l -9.225 -5.299 c .177 -3.484 1.073 -6.675 1.986 -9.056 c .506 -1.328 1.015 -2.402 1.39 -3.133 c .078 -.151 .144 -.275 .208 -.393 c .181 -.143 .445 -.345 .802 -.605 c 2.19 -1.601 7.453 -4.877 13.247 -5.542 c 2.921 .015 5.876 1.619 8.083 3.375 c 1.114 .88 2.027 1.773 2.651 2.434 c .122 .129 .221 .239 .318 .346 L 218.339 370.471 z" fill="#fff"/><path d="M 206.797 350.398 c -6.788 1.301 -12.12 4.99 -14.072 6.475 l -1.046 -.157 c 4.482 -3.105 9.597 -5.359 15.118 -6.526 V 350.398 z" fill="#fff"/><path d="M 221.247 407.326 l -19.603 -3.406 l -6.673 8.047 c 1.514 6.003 4.206 9.564 4.855 10.342 c .179 .116 .467 .299 .902 .553 c .755 .44 1.861 1.031 3.225 1.623 c 2.735 1.189 6.499 2.35 10.543 2.35 c 1.724 .024 3.725 -1.078 5.52 -2.77 c 1.787 -1.66 3.297 -3.768 4.183 -5.161 c .184 -.289 .33 -.529 .458 -.743 L 221.247 407.326 z" fill="#fff"/><path d="M 199.096 426.912 c 2.593 1.45 7.542 3.753 13.568 4.181 l .307 1.762 c -5.395 -.323 -10.511 -1.667 -15.164 -3.838 L 199.096 426.912 z" fill="#fff"/><path d="M 243.592 413.498 c -.87 1.033 -1.663 1.87 -2.23 2.444 c -.223 .226 -.395 .394 -.538 .53 c -.923 .238 -3.23 .734 -6.284 .734 c -1.742 0 -3.731 -.181 -5.842 -.633 l -3.455 -10.979 l 7.727 -15.664 l 11.404 -.801 c 1.176 1.549 3.938 6.275 4.037 16.796 C 247.193 408.792 245.267 411.516 243.592 413.498 z" fill="#fff"/><path d="M 252.019 370.853 l -1.361 -.583 c -1.216 -2.165 -5.155 -8.905 -10.721 -12.52 l .133 -.42 C 244.968 360.909 249.058 365.521 252.019 370.853 z" fill="#fff"/><path d="M 173.781 387.482 l 1.27 .347 c .08 4.81 .48 8.886 .741 11.092 l -1.344 .484 c -.543 -2.681 -.834 -5.456 -.839 -8.298 C 173.611 389.885 173.677 388.678 173.781 387.482 z" fill="#fff"/><path d="M 244.696 420.966 l -.4 -1.835 c 1.732 -1.723 5.512 -5.807 7.859 -10.943 l 1.664 -.473 C 251.648 412.716 248.533 417.205 244.696 420.966 z" fill="#fff"/><path d="M 520.967 324.097 L 590.316 324.097 L 590.316 319.406 L 590.316 286.321 L 470.361 286.321 Z" fill="#3155a6"/><path d="M 509.949 172.758 L 482.972 210.532 L 590.316 210.532 L 590.316 205.839 L 590.316 172.758 Z" fill="#3155a6"/><path d="M 442.424 267.313 L 590.316 267.313 L 590.316 262.624 L 590.316 229.539 L 469.401 229.539 Z" fill="#3155a6"/><path d="M 585.625 319.405 L 585.625 291.014 L 484.491 291.014 L 522.527 319.405 Z" fill="#fff"/><path d="M 585.625 205.841 L 585.625 177.45 L 512.366 177.45 L 492.092 205.841 Z" fill="#fff"/><path d="M 585.625 262.623 L 585.625 234.232 L 471.817 234.232 L 451.544 262.623 Z" fill="#fff"/></svg>
